packages/graphiql-react/src/icons/docs-filled.svg

<svg
  height="1em"
  viewBox="0 0 20 24"
  fill="none"
  xmlns="http://www.w3.org/2000/svg"
>
  <path
    d="M0.75 3C0.75 1.75736 1.75736 0.75 3 0.75H17.25C17.8023 0.75 18.25 1.19772 18.25 1.75V5.25"
    stroke="currentColor"
    stroke-width="1.5"
  />
  <path
    d="M0.75 3C0.75 4.24264 1.75736 5.25 3 5.25H18.25C18.8023 5.25 19.25 5.69771 19.25 6.25V22.25C19.25 22.8023 18.8023 23.25 18.25 23.25H3C1.75736 23.25 0.75 22.2426 0.75 21V3Z"
    stroke="currentColor"
    stroke-width="1.5"
  />
  <path
    fill-rule="evenodd"
    clip-rule="evenodd"
    d="M3 5.25C1.75736 5.25 0.75 4.24264 0.75 3V21C0.75 22.2426 1.75736 23.25 3 23.25H18.25C18.8023 23.25 19.25 22.8023 19.25 22.25V6.25C19.25 5.69771 18.8023 5.25 18.25 5.25H3ZM13 11L6 11V12.5L13 12.5V11Z"
    fill="currentColor"
  />
</svg>

<svg xmlns="http://www.w3.org/2000/svg" height="1em" fill="none" viewBox="0 0 20 24">
  <path stroke="currentColor" stroke-width="1.5" d="M.75 3A2.25 2.25 0 0 1 3 .75h14.25a1 1 0 0 1 1 1v3.5"/>
  <path stroke="currentColor" stroke-width="1.5" d="M.75 3A2.25 2.25 0 0 0 3 5.25h15.25a1 1 0 0 1 1 1v16a1 1 0 0 1-1 1H3A2.25 2.25 0 0 1 .75 21z"/>
  <path fill="currentColor" fill-rule="evenodd" d="M3 5.25A2.25 2.25 0 0 1 .75 3v18A2.25 2.25 0 0 0 3 23.25h15.25a1 1 0 0 0 1-1v-16a1 1 0 0 0-1-1zM13 11H6v1.5h7z" clip-rule="evenodd"/>
</svg>
